X:1
T: Woman Of The House, The
M: 4/4
L: 1/8
R: reel
K: Gmaj
DB{d}BA ~3B3A|GABd (3ege dB|(3ABA G^B A2(3B=cd|eB(3BAB gedB|
(3dcB (3cBA ~B3A|GABd (3ege dB|G2BG (3ABA GA |(3BAG AG EGD2:||
~f3d edBd|edfd edBd|~f3d edBd|ea{b}ag ^g~a2=g|
f2{a}fd edBd|gafg edBA|G2BG (3ABA GA |BGAG EGD2:||
